X: 1
T:2. Courant, of Harte diefje waerom zoo stil
T:(The frog galliard)
C:Jacob van Eyck
Z:Transcribed by Frank Nordberg - http://www.musicaviva.com
M:3/4
L:1/8
K:D bass
f4e2|d4c2|B3cd2|e6|f4e2|f>g a>b ^g2|a3 ecA|a6|
f4e2|d4c2|B3cd2|e6|f>ga2g2|f3ge2|d3ABc|d6|
g2g2g2|g3ab2|a2g2fe|f3gf2|a2g2f2|e3f^d2|e3Bc^d|e6|
f4e2|d4c2|B3cd2|e6|f>ga2g2|f3ge2|d3ABc|d6||
"Modo 2"f4e2|d4c2|B3cd2|e6|fefde2|fdaf^g2|a3b=c'b|a6|
f>e fdec|d>e dBcA|B>A BcdB|eAcde2|fgabga|f>e fdeA|d>A BAFD|d6|
g2 gdef|g>f gabg|afgeag|fAdefg|abgafg|e>g fe^dB|e>f ^gabB|e6|
f>e fdec|d>e dBcA|B>A BcdB|eAcde2|fgabga|f>e fdeA|d>A BAFD|d6||
"Modo 3"fe/2f/2 dfec|dc/2d/2 BdcA|BB/2c/2 dBcd|eA/2B/2 c/2d/2e/2A/2 e2|
fe/2f/2 dfec|fd/2e/2 f/2g/2a/2b/2^ge|a>g fe/2d/2 cB/2A/2|a6|
fe/2f/2 gfec|dc/2d/2 edcA|BG/2A/2 BB/2c/2 dc/2B/2|eA/2B/2 cB/2A/2 e2|
fg ab/2a/2 ga/2g/2|fB/2c/2 d/2e/2f eA|d>c BA/2G/2 FE/2D/2|d6|
g2 ge/2f/2 g/2d/2e/2f/2|ge/2d/2 e/2f/2g/2a/2 b=c'/2b/2|\
ab/2a/2 gf/2g/2 a/2g/2f/2e/2|f/2A/2B/2c/2 d/2e/2f/2g/2 fd/2e/2|
f/2g/2a/2b/2 ga/2g/2 fg/2f/2|eE/2F/2 G/2A/2B/2c/2 ^dc/2d/2|\
ed/2e/2 f/2e/2d/2c/2 B/2A/2G/2F/2|EF/2G/2 A/2B/2c/2d/2 e2|
fF/2G/2 A/2B/2c/2d/2 ef/2e/2|dD/2E/2 F/2G/2A/2B/2 cd/2c/2|\
BE/2F/2 G/2A/2B/2c/2 d/2e/2f/2g/2|eA/2^G/2 A/2B/2c/2d/2 eB/2c/2|
d/2e/2f/2g/2 ab/2a/2 ga/2g/2|fF/2G/2 A/2B/2c/2d/2 ef/2e/2|dF/2G/2 AD/2E/2 G/2A/2B/2c/2|Hd6|]
